icons/desktop/16/restore-16.svg

<svg width="16" height="16" viewBox="0 0 16 16" fill="none" xmlns="http://www.w3.org/2000/svg">
<g clip-path="url(#clip0_18918_1045)">
<path d="M8.50037 1C12.6362 1.00019 16.0004 4.36411 16.0004 8.5C16.0004 12.6359 12.6362 15.9998 8.50037 16C5.21947 16 2.34701 13.9012 1.35193 10.7773C1.22693 10.3823 1.44523 9.96096 1.83923 9.83496C2.23517 9.7111 2.65566 9.92833 2.78064 10.3223C3.57568 12.8212 5.87444 14.5 8.49939 14.5C11.8082 14.4998 14.4994 11.8089 14.4994 8.5C14.4994 5.19112 11.8082 2.5002 8.49939 2.5C6.6272 2.5 4.89886 3.36275 3.7738 4.80469L5.1156 6.14648C5.43056 6.46148 5.20804 6.99996 4.76208 7H1.26404C0.988038 7 0.764038 6.776 0.764038 6.5V3.00098C0.764062 2.556 1.30256 2.33249 1.61755 2.64746L2.70447 3.73535C4.11234 2.01942 6.2225 1 8.50037 1Z" fill="black"/>
<path d="M8.53455 5C8.94854 5.00026 9.28455 5.33595 9.28455 5.75V8.41309C9.28458 8.50129 9.33206 8.58441 9.41052 8.62988L11.0902 9.60059C11.4485 9.80783 11.5716 10.2665 11.3646 10.625C11.1575 10.9835 10.6988 11.1063 10.3402 10.8994L8.65955 9.92871L8.65857 9.92773C8.11918 9.61521 7.78458 9.03875 7.78455 8.41309V5.75C7.78455 5.33579 8.12033 5 8.53455 5Z" fill="black"/>
</g>
<defs>
<clipPath id="clip0_18918_1045">
<rect width="16" height="16" fill="white"/>
</clipPath>
</defs>
</svg>

<!-- This Source Code Form is subject to the terms of the Mozilla Public
   - License, v. 2.0. If a copy of the MPL was not distributed with this
   - file, You can obtain one at http://mozilla.org/MPL/2.0/. -->
<svg xmlns="http://www.w3.org/2000/svg" width="16" height="16" fill="context-fill" fill-opacity="context-fill-opacity" viewBox="0 0 16 16">
    <path d="M8.5 1C12.636 1 16 4.364 16 8.5S12.636 16 8.5 16a7.475 7.475 0 0 1-7.148-5.223.75.75 0 0 1 1.429-.455A5.98 5.98 0 0 0 8.499 14.5c3.31 0 6-2.691 6-6s-2.69-6-6-6a5.98 5.98 0 0 0-4.725 2.305l1.342 1.341A.5.5 0 0 1 4.762 7H1.264a.5.5 0 0 1-.5-.5V3.001a.5.5 0 0 1 .854-.354l1.086 1.088A7.48 7.48 0 0 1 8.5 1" />
    <path d="M8.535 5a.75.75 0 0 1 .75.75v2.663c0 .088.047.171.126.217l1.68.97a.75.75 0 0 1-.75 1.3L8.66 9.928l-.001-.001a1.75 1.75 0 0 1-.874-1.515V5.75a.75.75 0 0 1 .75-.75" />
</svg>
